svg/msm_negative.svg

<svg width="48" height="48" viewBox="0 0 48 48" fill="none" xmlns="http://www.w3.org/2000/svg">
<path fill-rule="evenodd" clip-rule="evenodd" d="M0 0V47.9994H47.9994V0H0ZM16.8548 7.40221C18.7428 7.40251 20.2727 8.89669 20.2727 10.7399C20.2737 12.5838 18.7438 14.0798 16.8548 14.0798C14.9668 14.0798 13.4368 12.5838 13.4378 10.7399C13.4378 8.89669 14.9678 7.40251 16.8548 7.40221ZM30.5096 7.40221C32.3966 7.40251 33.9266 8.89669 33.9276 10.7399C33.9276 12.5838 32.3976 14.0798 30.5096 14.0798C28.6216 14.0798 27.0907 12.5838 27.0917 10.7399C27.0917 8.89669 28.6216 7.40251 30.5096 7.40221ZM20.3807 15.1578C20.8017 15.2138 21.2237 15.2578 21.6447 15.3278C22.1107 15.4178 22.8697 15.4358 23.3947 15.9158L24.0307 15.7658C24.5927 15.4838 24.9247 15.3318 25.6367 15.3278C26.0567 15.2578 26.4787 15.2138 26.8997 15.1578C27.8726 16.8798 30.5936 19.4698 34.4356 15.1698C34.7346 15.2198 35.0366 15.2688 35.3376 15.3318C35.5786 15.3308 36.2045 15.4468 36.4075 15.6908L39.7945 20.2887V20.2927L41.4195 22.4937C41.9485 23.2677 41.5885 24.2227 41.4465 24.4667L37.2025 30.6776C36.2845 31.3306 35.3206 31.1526 34.7356 30.5586C35.6086 33.7656 35.2556 37.5895 34.5076 41.3395H30.5716L30.5896 35.4296L30.4296 35.4376L30.4316 41.3415H26.3907C24.2697 32.7776 26.8327 30.2606 26.0407 22.8377L22.5407 19.7128C21.7937 19.3248 21.4037 21.4337 21.3157 22.1267C20.2677 30.1226 23.0787 32.5036 20.8907 41.3415H16.8498L16.8518 35.4376L16.6908 35.4296L16.7088 41.3395H12.7728C12.0248 37.5895 11.6719 33.7656 12.5448 30.5586C11.9599 31.1526 10.9959 31.3306 10.0779 30.6776L5.83393 24.4667C5.69243 24.2227 5.33193 23.2677 5.86123 22.4937L7.48621 20.2927V20.2887L10.8729 15.6908C11.0759 15.4468 11.7019 15.3308 11.9428 15.3318C12.2438 15.2688 12.5458 15.2188 12.8458 15.1698C14.0508 17.7398 15.9058 16.2758 16.6618 18.7578C17.7028 15.9418 18.7998 18.0928 20.3807 15.1578ZM11.9079 20.5057L9.71278 23.5527L12.7908 28.0566C12.8608 28.1886 12.9158 28.3206 12.9608 28.4506C13.1898 26.5707 13.0678 24.1637 11.9079 20.5057ZM35.3726 20.5057C34.2136 24.1637 34.0906 26.5707 34.3196 28.4506C34.3646 28.3206 34.4196 28.1886 34.4896 28.0566L37.5675 23.5527L35.3726 20.5057Z" fill="#333333" fill-opacity="0.9976"/>
</svg>

<?xml version="1.0" encoding="UTF-8" standalone="no"?>
<!-- Created with Inkscape (http://www.inkscape.org/) -->
<svg id="svg8" xmlns:rdf="http://www.w3.org/1999/02/22-rdf-syntax-ns#" xmlns="http://www.w3.org/2000/svg" xmlns:osb="http://www.openswatchbook.org/uri/2009/osb" height="48" width="48" version="1.1" xmlns:cc="http://creativecommons.org/ns#" viewBox="0 0 12.7 12.7" xmlns:dc="http://purl.org/dc/elements/1.1/">
 <title id="title4753">UIO-icon</title>
 <metadata id="metadata5">
  <rdf:RDF>
   <cc:Work rdf:about="">
    <dc:format>image/svg+xml</dc:format>
    <dc:type rdf:resource="http://purl.org/dc/dcmitype/StillImage"/>
    <dc:title>UIO-icon</dc:title>
    <dc:creator>
     <cc:Agent>
      <dc:title>Joaquín Urbano</dc:title>
     </cc:Agent>
    </dc:creator>
    <dc:rights>
     <cc:Agent>
      <dc:title>GPL</dc:title>
     </cc:Agent>
    </dc:rights>
   </cc:Work>
  </rdf:RDF>
 </metadata>
 <g id="layer1" fill="#333" transform="translate(0,-284.3)">
  <path id="rect3306" d="m0 0v48h48v-48h-48zm16.855 7.4023c1.888 0.0003 3.418 1.4945 3.418 3.3377 0.001 1.844-1.529 3.34-3.418 3.34-1.888 0-3.418-1.496-3.417-3.34 0-1.8432 1.53-3.3374 3.417-3.3377zm13.655 0c1.887 0.0003 3.417 1.4945 3.418 3.3377 0 1.844-1.53 3.34-3.418 3.34s-3.419-1.496-3.418-3.34c0-1.8432 1.53-3.3374 3.418-3.3377zm-10.129 7.7557c0.421 0.056 0.843 0.1 1.264 0.17 0.466 0.09 1.225 0.108 1.75 0.588l0.636-0.15c0.562-0.282 0.894-0.434 1.606-0.438 0.42-0.07 0.842-0.114 1.263-0.17 0.973 1.722 3.694 4.312 7.536 0.012 0.299 0.05 0.601 0.099 0.902 0.162 0.241-0.001 0.867 0.115 1.07 0.359l3.387 4.598v0.004l1.625 2.201c0.529 0.774 0.169 1.729 0.027 1.973l-4.244 6.211c-0.918 0.653-1.882 0.475-2.467-0.119 0.873 3.207 0.52 7.031-0.228 10.781h-3.936l0.018-5.91-0.16 0.008 0.002 5.904h-4.041c-2.121-8.564 0.442-11.081-0.35-18.504l-3.5-3.125c-0.747-0.388-1.137 1.721-1.225 2.414-1.048 7.996 1.763 10.377-0.425 19.215h-4.041l0.002-5.904-0.161-0.008 0.018 5.91h-3.936c-0.748-3.75-1.101-7.574-0.228-10.781-0.585 0.594-1.549 0.772-2.467 0.119l-4.244-6.211c-0.1415-0.244-0.502-1.199 0.0273-1.973l1.625-2.201v-0.004l3.3867-4.598c0.203-0.244 0.829-0.36 1.07-0.359 0.301-0.063 0.603-0.113 0.903-0.162 1.205 2.57 3.06 1.106 3.816 3.588 1.041-2.816 2.138-0.665 3.719-3.6zm-8.473 5.348l-2.1951 3.047 3.0781 4.504c0.07 0.132 0.125 0.264 0.17 0.394 0.229-1.88 0.107-4.287-1.053-7.945zm23.465 0c-1.159 3.658-1.282 6.065-1.053 7.945 0.045-0.13 0.1-0.262 0.17-0.394l3.078-4.504-2.195-3.047z" fill-rule="evenodd" fill-opacity=".99760" transform="matrix(.26458 0 0 .26458 0 284.3)"/>
 </g>
</svg>
